icons/OpenLotus/actions/16/view-restore.svg

<?xml version="1.0" encoding="UTF-8" standalone="no"?>
<!-- Created with Inkscape (http://www.inkscape.org/) -->

<svg
   xmlns:dc="http://purl.org/dc/elements/1.1/"
   xmlns:cc="http://creativecommons.org/ns#"
   xmlns:rdf="http://www.w3.org/1999/02/22-rdf-syntax-ns#"
   xmlns:svg="http://www.w3.org/2000/svg"
   xmlns="http://www.w3.org/2000/svg"
   xmlns:sodipodi="http://sodipodi.sourceforge.net/DTD/sodipodi-0.dtd"
   xmlns:inkscape="http://www.inkscape.org/namespaces/inkscape"
   width="16"
   height="16"
   viewBox="0 0 16 16"
   version="1.1"
   id="default16"
   inkscape:version="0.92+devel (1c31310676, 2017-09-09, custom)"
   sodipodi:docname="view-restore.svg">
  <defs
     id="defs829" />
  <sodipodi:namedview
     id="base"
     pagecolor="#002466"
     bordercolor="#ffffff"
     borderopacity="0.38039216"
     inkscape:pageopacity="1"
     inkscape:pageshadow="2"
     inkscape:zoom="26.28125"
     inkscape:cx="7.7336504"
     inkscape:cy="8"
     inkscape:document-units="px"
     inkscape:current-layer="default16"
     inkscape:document-rotation="0"
     showgrid="false"
     inkscape:showpageshadow="false"
     borderlayer="true"
     inkscape:window-width="1920"
     inkscape:window-height="1027"
     inkscape:window-x="0"
     inkscape:window-y="24"
     inkscape:window-maximized="1"
     units="px"
     inkscape:snap-intersection-paths="false"
     inkscape:object-paths="true" />
  <metadata
     id="metadata5">
    <rdf:RDF>
      <cc:Work
         rdf:about="">
        <dc:format>image/svg+xml</dc:format>
        <dc:type
           rdf:resource="http://purl.org/dc/dcmitype/StillImage" />
        <dc:title></dc:title>
      </cc:Work>
    </rdf:RDF>
  </metadata>
  <g
     id="g1410"
     inkscape:label="#view-restore"
     style="stroke:none">
    <path
       inkscape:label="#boundary"
       inkscape:connector-curvature="0"
       id="rect1404"
       d="M 0,-1.5e-7 H 16 V 16 H 0 Z"
       style="fill:none;stroke:none;stroke-width:1.20000005" />
    <path
       inkscape:label="#"
       inkscape:connector-curvature="0"
       id="rect1380"
       d="m 4,4 v 8 h 8 V 4 Z m 1,2 h 6 v 5 H 5 Z"
       style="opacity:0.6;fill:#d0d0d0;stroke:none;stroke-width:1.20000005" />
    <path
       inkscape:label="#"
       id="path1387"
       d="M 6,2 8,4 10,2 Z M 2,6 v 4 L 4,8 Z m 12,0 -2,2 2,2 z m -6,6 -2,2 h 4 z"
       style="fill:#00ff00;stroke:none;stroke-width:1px;stroke-linecap:butt;stroke-linejoin:miter;stroke-opacity:1"
       inkscape:connector-curvature="0" />
  </g>
</svg>

<svg xmlns="http://www.w3.org/2000/svg" viewBox="0 0 16 16">
  <defs id="defs3051">
    <style type="text/css" id="current-color-scheme">
      .ColorScheme-Text {
        color:#f2f2f2;
      }
      </style>
  </defs>
 <path style="fill:currentColor;fill-opacity:1;stroke:none" 
       d="M 6 2 L 8 4 L 10 2 L 6 2 z M 8 4 L 4 4 L 4 8 L 4 12 L 8 12 L 12 12 L 12 8 L 12 4 L 8 4 z M 12 8 L 14 10 L 14 6 L 12 8 z M 8 12 L 6 14 L 10 14 L 8 12 z M 4 8 L 2 6 L 2 10 L 4 8 z M 5 6 L 11 6 L 11 11 L 5 11 L 5 6 z "
     class="ColorScheme-Text"
     />
</svg>
